src/icons/crossplatform.svg

<svg fill="none" height="39" viewBox="0 0 53 39" width="53" xmlns="http://www.w3.org/2000/svg"><path d="m41 10v-5c0-2.20914-1.7909-4-4-4h-32c-2.20914 0-4 1.79086-4 4v21c0 2.2091 1.79086 4 4 4h21"/><path d="m16 38h10"/><path d="m21 30v8"/><path d="m1 24h25"/><path d="m48 15c0-1.3807-.6193-2-2-2h-14.5c-1.3807 0-2.5 1.1193-2.5 2.5v20c0 1.3807 1.1193 2.5 2.5 2.5h4"/><path d="m50 18h-10c-1.1046 0-2 .8954-2 2v16c0 1.1046.8954 2 2 2h10c1.1046 0 2-.8954 2-2v-16c0-1.1046-.8954-2-2-2z"/><path d="m45 34h.01"/></svg>

<svg width="53" height="39" viewBox="0 0 53 39" fill="none" xmlns="http://www.w3.org/2000/svg">
<path d="M41 10V5C41 2.79086 39.2091 1 37 1H5C2.79086 1 1 2.79086 1 5V26C1 28.2091 2.79086 30 5 30H26"/>
<path d="M16 38H26"/>
<path d="M21 30V38"/>
<path d="M1 24L26 24"/>
<path d="M48 15C48 13.6193 47.3807 13 46 13L31.5 13C30.1193 13 29 14.1193 29 15.5L29 35.5C29 36.8807 30.1193 38 31.5 38H35.5"/>
<path d="M50 18H40C38.8954 18 38 18.8954 38 20V36C38 37.1046 38.8954 38 40 38H50C51.1046 38 52 37.1046 52 36V20C52 18.8954 51.1046 18 50 18Z"/>
<path d="M45 34H45.01"/>
</svg>
